public/style/workarea/images/drag-hand-icon.svg

<svg fill="none" height="42" viewBox="0 0 46 42" width="46" xmlns="http://www.w3.org/2000/svg"><path d="m9.89385 27.3114c-1.04157 1.1712-2.29672 2.8127-2.45188 4.4423-.25603 2.6891 3.08553 4.751 3.08553 4.751s4.5081 2.7976 7.7483 3.5793c3.5238.85 9.2796.2158 9.2796.2158 9.0821 0 16.4446-7.3626 16.4446-16.4447 0-5.5471-3.574-11.3021-6.661-13.3736l-11.2416-8.44128c-1.6514-1.240007-3.9954-.90649-5.2354.74493-.6902.91926-.8929 2.05312-.6521 3.0917.1917.82682.657 1.61772 1.3886 2.16744m-13.88064 8.28101c-1.65141-1.24-3.99537-.9065-5.23538.7449-.69025.9193-.89293 2.0531-.65213 3.0917.19179.8272.6649 1.5939 1.39706 2.1437l11.24159 8.4412m-2.3067-20.4378-2.1211-1.59268c-1.6514-1.24-3.99536-.90649-5.23537.74493-.69025.91925-.89293 2.05315-.65212 3.09175.19179.8271.6649 1.5939 1.39705 2.1436l11.24164 8.4413m-4.6301-12.8289c.0274.0218.0552.0433.0833.0644m-.0833-.0644c-.6848-.54443-1.1293-1.28391-1.3137-2.07926-.2408-1.03859-.0382-2.17244.6521-3.09171 1.24-1.65142 3.584-1.98493 5.2354-.74493l4.8624 3.65119m-9.4362 2.26471 6.8571 5.149m2.5791-7.41371 3.1896 2.39501" stroke="#474747" stroke-linecap="round" stroke-width="2.33219"/></svg>

<svg width="46" height="42" viewBox="0 0 46 42" fill="none" xmlns="http://www.w3.org/2000/svg">
<path d="M9.89385 27.3114C8.85228 28.4826 7.59713 30.1241 7.44197 31.7537C7.18594 34.4428 10.5275 36.5047 10.5275 36.5047C10.5275 36.5047 15.0356 39.3023 18.2758 40.084C21.7996 40.934 27.5554 40.2998 27.5554 40.2998C36.6375 40.2998 44 32.9372 44 23.8551C44 18.308 40.426 12.553 37.339 10.4815L26.0974 2.04022C24.446 0.800213 22.102 1.13373 20.862 2.78515C20.1718 3.70441 19.9691 4.83827 20.2099 5.87685C20.4016 6.70367 20.8669 7.49457 21.5985 8.04429M7.71786 16.3253C6.06645 15.0853 3.72249 15.4188 2.48248 17.0702C1.79223 17.9895 1.58955 19.1233 1.83035 20.1619C2.02214 20.9891 2.49525 21.7558 3.22741 22.3056L14.469 30.7468M12.1623 10.309L10.0412 8.71632C8.3898 7.47632 6.04584 7.80983 4.80583 9.46125C4.11558 10.3805 3.9129 11.5144 4.15371 12.553C4.3455 13.3801 4.81861 14.1469 5.55076 14.6966L16.7924 23.1379M12.1623 10.309C12.1897 10.3308 12.2175 10.3523 12.2456 10.3734M12.1623 10.309C11.4775 9.76457 11.033 9.02509 10.8486 8.22974C10.6078 7.19115 10.8104 6.0573 11.5007 5.13803C12.7407 3.48661 15.0847 3.1531 16.7361 4.3931L21.5985 8.04429M12.1623 10.309L19.0194 15.458M21.5985 8.04429L24.7881 10.4393" stroke="#474747" stroke-width="2.33219" stroke-linecap="round"/>
</svg>
